X: 305
T:Caher Rua
M:C|
L:1/8
R:reel
D:Oisn MacDiarmada, Brian Fitzgerald and Michel  Ruanaigh: Traditional
D:Music on Fiddle, Banjo and Harp
Z:Devin McCabe
K:G
G3D EDB,E|DB,EB, DB,A,B,|:G,/2G,/2G, B,E EDB,E|DEGc cBAB|
!G3E EDA,B,|D~E3 DB,A,B,|B,G,B,E EDB,E|DEGc cBAB|
!G3E EDB,E|D~E3 DB,A,B,|B,G,B,E EDB,E|DEGc cBAB|
!G/2G/2G AG D~E2E|DB,EB, DB,A,B,|G,/2G,/2G, B,E EDB,E|DEGc BGGF|
!GG,2A, A,G,B,D|FGGc BGAB|Bc2B BAGB|AdBG AD~E2|
!GG,2A, A,G,B,D|FGGc BGAc|cBAB BAGE|DB,A,C B,DEF|
!GG,2A, A,G,B,D|FGGc BGAB|Bc2B BAGB|AdBG AD~E2|
!GG,2A, A,G,B,D|FGGc BGAB|Bc2~B- B2dB|ccdc AddB|
!GddG EFdF|EDGE DB,A,B,:|
